web/static/images/header_logo.svg

<?xml version="1.0" encoding="UTF-8"?>
<svg width="80px" height="28px" viewBox="0 0 80 28" version="1.1" xmlns="http://www.w3.org/2000/svg" xmlns:xlink="http://www.w3.org/1999/xlink">
    <!-- Generator: Sketch 51.2 (57519) - http://www.bohemiancoding.com/sketch -->
    <title>logo</title>
    <desc>Created with Sketch.</desc>
    <defs></defs>
    <g id="Page-1" stroke="none" stroke-width="1" fill="none" fill-rule="evenodd">
        <g id="Desktop-HD" transform="translate(-40.000000, -26.000000)">
            <g id="nav">
                <g id="logo" transform="translate(40.000000, 26.000000)">
                    <path d="M55.0432239,27.5342261 C53.3214328,27.5342261 51.9244179,26.1110957 51.9244179,24.3556174 L51.9244179,4.15787826 C51.9244179,2.39996522 53.3214328,0.978052174 55.0432239,0.978052174 C56.7650149,0.978052174 58.1620299,2.39996522 58.1620299,4.15787826 L58.1620299,24.3556174 C58.1620299,26.1110957 56.7650149,27.5342261 55.0432239,27.5342261" id="Fill-1" fill="#F9401C"></path>
                    <path d="M71.286806,11.4585739 C69.889791,11.4585739 68.7530746,10.2996174 68.7530746,8.87526957 C68.7530746,7.44970435 69.889791,6.29196522 71.286806,6.29196522 C72.6838209,6.29196522 73.8205373,7.44970435 73.8205373,8.87526957 C73.8205373,10.2996174 72.6838209,11.4585739 71.286806,11.4585739 M71.286806,17.0695304 C72.6838209,17.0695304 73.8205373,18.2297043 73.8205373,19.6540522 C73.8205373,21.0784 72.6838209,22.2373565 71.286806,22.2373565 C69.889791,22.2373565 68.7530746,21.0784 68.7530746,19.6540522 C68.7530746,18.2297043 69.889791,17.0695304 71.286806,17.0695304 M79.0981493,8.94222609 C79.0981493,4.54257391 75.6008358,0.978052174 71.286806,0.978052174 C66.9727761,0.978052174 63.4742687,4.54257391 63.4742687,8.94222609 C63.4742687,10.9862261 64.2372537,12.8464 65.4790448,14.2561391 C64.2372537,15.6658783 63.4742687,17.5248348 63.4742687,19.5700522 C63.4742687,23.968487 66.9727761,27.5342261 71.286806,27.5342261 C75.6008358,27.5342261 79.0981493,23.968487 79.0981493,19.5700522 C79.0981493,17.5248348 78.3363582,15.6658783 77.0945672,14.2561391 C78.3363582,12.8464 79.0981493,10.9862261 79.0981493,8.94222609" id="Fill-3" fill="#FFFFFF"></path>
                    <path d="M8.46041791,21.4746609 C9.32608955,23.7755304 8.2001194,26.3551826 5.94459701,27.2365739 C3.6878806,28.1204 1.15773134,26.9724 0.292059701,24.6715304 C-0.57361194,22.3718783 0.552358209,19.7922261 2.8078806,18.9096174 C5.06340299,18.0257913 7.59474627,19.1750087 8.46041791,21.4746609" id="Fill-5" fill="#FFFFFF"></path>
                    <path d="M47.4108657,22.9619478 C44.7577313,24.0003826 41.782209,22.6490783 40.7637015,19.9440348 C40.7625075,19.9416 40.7625075,19.9391652 40.7613134,19.9367304 L40.7625075,19.9367304 L38.1117612,12.8953391 C38.1117612,12.8953391 35.4490746,5.8296 35.4466866,5.82351304 C33.9816119,1.93151304 29.6998209,-0.0138782609 25.8813134,1.47986087 C23.9171343,2.24925217 22.4604179,3.77951304 21.7069851,5.61412174 C21.7690746,5.58733913 21.8299701,5.55446957 21.8944478,5.53012174 C24.5475821,4.49046957 27.5231045,5.84177391 28.5416119,8.54681739 L31.1887761,15.5772522 C31.1887761,15.5772522 31.1899701,15.5760348 31.1899701,15.5760348 C31.1899701,15.5760348 33.8431045,22.6271652 33.8514627,22.6490783 C35.3165373,26.5410783 39.5995224,28.4864696 43.4180299,26.9927304 C45.3726567,26.2269913 46.824597,24.707687 47.5816119,22.8852522 C47.5242985,22.9096 47.4693731,22.9376 47.4108657,22.9619478" id="Fill-7" fill="#FFFFFF"></path>
                    <path d="M30.1109254,22.9619478 C27.457791,24.0003826 24.4822687,22.6490783 23.4637612,19.9440348 C23.4625672,19.9416 23.4625672,19.9391652 23.4613731,19.9367304 L23.4625672,19.9367304 L20.8118209,12.8953391 C20.8118209,12.8953391 18.1491343,5.8296 18.1467463,5.82351304 C16.6816716,1.93151304 12.3986866,-0.0138782609 8.58137313,1.47986087 C6.616,2.24925217 5.16047761,3.77951304 4.40704478,5.61412174 C4.46913433,5.58733913 4.53002985,5.55446957 4.59450746,5.53012174 C7.24764179,4.49046957 10.2231642,5.84177391 11.2416716,8.54681739 L13.8888358,15.5772522 C13.8888358,15.5772522 13.8888358,15.5760348 13.8900299,15.5760348 C13.8900299,15.5760348 16.5431642,22.6271652 16.5515224,22.6490783 C18.016597,26.5410783 22.2995821,28.4864696 26.1168955,26.9927304 C28.0727164,26.2269913 29.5246567,24.707687 30.2816716,22.8852522 C30.2243582,22.9096 30.1694328,22.9376 30.1109254,22.9619478" id="Fill-9" fill="#FFFFFF"></path>
                </g>
            </g>
        </g>
    </g>
</svg>

<svg width="80" height="28" xmlns="http://www.w3.org/2000/svg"><g fill="none" fill-rule="evenodd"><path d="M55.043 27.534c-1.722 0-3.119-1.423-3.119-3.178V4.158c0-1.758 1.397-3.18 3.12-3.18 1.721 0 3.118 1.422 3.118 3.18v20.198c0 1.755-1.397 3.178-3.119 3.178" fill="#F9401C"/><path d="M71.287 11.459c-1.397 0-2.534-1.16-2.534-2.584 0-1.425 1.137-2.583 2.534-2.583 1.397 0 2.534 1.158 2.534 2.583 0 1.425-1.137 2.584-2.534 2.584m0 5.61c1.397 0 2.534 1.16 2.534 2.585 0 1.424-1.137 2.583-2.534 2.583-1.397 0-2.534-1.159-2.534-2.583 0-1.424 1.137-2.584 2.534-2.584m7.811-8.128c0-4.4-3.497-7.964-7.811-7.964s-7.813 3.565-7.813 7.964c0 2.044.763 3.904 2.005 5.314a8.014 8.014 0 0 0-2.005 5.314c0 4.398 3.499 7.964 7.813 7.964s7.811-3.566 7.811-7.964a8.013 8.013 0 0 0-2.003-5.314 8.015 8.015 0 0 0 2.003-5.314M8.46 21.475c.866 2.3-.26 4.88-2.515 5.762-2.257.883-4.787-.265-5.653-2.565-.866-2.3.26-4.88 2.516-5.762 2.255-.884 4.787.265 5.652 2.565M47.41 22.962c-2.652 1.038-5.628-.313-6.646-3.018-.001-.002-.001-.005-.003-.007h.002l-2.651-7.042-2.665-7.071C33.982 1.932 29.7-.014 25.88 1.48c-1.964.77-3.42 2.3-4.174 4.134.062-.027.123-.06.187-.084 2.654-1.04 5.63.312 6.648 3.017l2.647 7.03.001-.001 2.661 7.073c1.466 3.892 5.749 5.837 9.567 4.344 1.955-.766 3.407-2.285 4.164-4.108-.058.025-.113.053-.171.077M30.11 22.962c-2.652 1.038-5.628-.313-6.646-3.018-.001-.002-.001-.005-.003-.007h.002l-2.651-7.042-2.665-7.071C16.682 1.932 12.399-.014 8.58 1.48c-1.965.77-3.42 2.3-4.174 4.134.062-.027.123-.06.188-.084 2.653-1.04 5.628.312 6.647 3.017l2.647 7.03.001-.001 2.662 7.073c1.465 3.892 5.748 5.837 9.565 4.344 1.956-.766 3.408-2.285 4.165-4.108-.058.025-.113.053-.171.077" fill="#FFF"/></g></svg>
